X:1
T:Title
L:1/8
M:4/4
K:G
V:1 treble nm="Church Organ, Staff"
V:1
 d2 d2 B2 G2 | A2 Bc d4 | B2 c2 B2 z2 | d2 d2- d/ z/ B A2- | AGcA d2 B2 | B2 BB Bc d2 | %6
w: By~Praetorius * * *||||||
 d2 d2 cB A2- | A2 G2 FE D2 | D2 G2 G2 A2 | A2 Bc d4 | B2 B2 AG B2 | A2 G4 z2 |] %12
w: ||||||

